navigator/static/images/icons/product.svg

<?xml version="1.0" encoding="UTF-8" standalone="no"?>
<svg width="46px" height="42px" viewBox="0 0 46 42" version="1.1" xmlns="http://www.w3.org/2000/svg" xmlns:xlink="http://www.w3.org/1999/xlink">
    <!-- Generator: Sketch 39.1 (31720) - http://www.bohemiancoding.com/sketch -->
    <title>Page 1</title>
    <desc>Created with Sketch.</desc>
    <defs>
        <polygon id="path-1" points="0.000184186191 42 45.6958993 42 45.6958993 0.494824708 0.000184186191 0.494824708 0.000184186191 42"></polygon>
        <polygon id="path-3" points="0.4219 6 5.8799 6 5.8799 0.8122 0.4219 0.8122 0.4219 6"></polygon>
    </defs>
    <g id="solution-3" stroke="none" stroke-width="1" fill="none" fill-rule="evenodd">
        <g id="details" transform="translate(-319.000000, -1096.000000)">
            <g id="Page-1" transform="translate(319.000000, 1095.000000)">
                <g id="Group-3" transform="translate(0.000000, 0.505500)">
                    <mask id="mask-2" fill="white">
                        <use xlink:href="#path-1"></use>
                    </mask>
                    <g id="Clip-2"></g>
                    <path d="M11.4219,39.4072 C11.4219,40.8392 12.6459,42.0002 14.1509,42.0002 C15.6589,42.0002 16.8799,40.8402 16.8799,39.4072 C16.8799,37.9742 15.6579,36.8122 14.1509,36.8122 C12.6459,36.8122 11.4249,37.9752 11.4219,39.4072 L11.4219,39.4072 Z M10.2259,9.7652 L13.2699,10.0952 L15.5179,26.4352 L12.6729,26.4352 L10.2259,9.7652 Z M16.1889,10.4162 L20.6149,10.8972 L21.3559,26.4352 L18.3989,26.4352 L16.1889,10.4162 Z M23.4889,11.2112 L27.9349,11.6952 L27.1959,26.4352 L24.2159,26.4352 L23.4889,11.2112 Z M30.0599,26.4352 L30.7799,12.0062 L35.2299,12.4912 L33.0369,26.4352 L30.0599,26.4352 Z M35.9189,26.4352 L38.0669,12.8002 L42.4949,13.2822 L38.8729,26.4352 L35.9189,26.4352 Z M1.0819,3.0512 L5.8759,4.1392 L9.9999,27.9022 L9.9999,27.9172 L10.0049,27.9442 C10.0219,28.0152 10.0589,28.0802 10.0889,28.1492 C10.1179,28.2252 10.1349,28.3032 10.1739,28.3722 C10.2209,28.4432 10.2879,28.5002 10.3479,28.5662 C10.3999,28.6202 10.4379,28.6782 10.4929,28.7212 C10.5689,28.7792 10.6599,28.8172 10.7489,28.8602 C10.8069,28.8882 10.8569,28.9262 10.9209,28.9492 C11.0779,29.0032 11.2479,29.0312 11.4229,29.0312 L38.1589,29.0312 L37.4459,31.6252 L8.5679,31.6252 C7.7799,31.6252 7.1419,32.2062 7.1419,32.9232 C7.1419,33.6392 7.7799,34.2192 8.5679,34.2192 L38.5619,34.2192 C38.7399,34.2192 38.9109,34.1852 39.0709,34.1312 C39.1269,34.1102 39.1719,34.0812 39.2239,34.0542 C39.3219,34.0062 39.4129,33.9532 39.4999,33.8842 C39.5479,33.8412 39.5919,33.7972 39.6329,33.7532 C39.7019,33.6792 39.7599,33.6012 39.8069,33.5172 C39.8409,33.4592 39.8709,33.4022 39.8939,33.3392 C39.9079,33.3042 39.9329,33.2752 39.9439,33.2372 L41.3709,28.0492 L45.6569,12.4842 C45.7049,12.3052 45.7049,12.1252 45.6769,11.9542 C45.6679,11.9072 45.6399,11.8682 45.6249,11.8232 C45.5849,11.6982 45.5409,11.5772 45.4639,11.4682 C45.4589,11.4572 45.4589,11.4442 45.4499,11.4342 C45.4139,11.3902 45.3629,11.3662 45.3219,11.3262 C45.2429,11.2452 45.1619,11.1642 45.0619,11.1022 C44.9909,11.0592 44.9149,11.0342 44.8339,11.0032 C44.7619,10.9752 44.7009,10.9292 44.6199,10.9112 C44.5849,10.9032 44.5549,10.9122 44.5229,10.9072 C44.4929,10.9022 44.4709,10.8842 44.4439,10.8812 L9.2749,7.0462 L8.5509,2.8852 C8.4629,2.3732 8.0429,1.9582 7.4869,1.8312 L1.7739,0.5342 C1.0099,0.3592 0.2329,0.7842 0.0439,1.4782 C-0.1491,2.1732 0.3149,2.8772 1.0819,3.0512 L1.0819,3.0512 Z" id="Fill-1" fill="#1E1348" mask="url(#mask-2)"></path>
                </g>
                <g id="Group-6" transform="translate(30.000000, 36.505500)">
                    <mask id="mask-4" fill="white">
                        <use xlink:href="#path-3"></use>
                    </mask>
                    <g id="Clip-5"></g>
                    <path d="M0.4219,3.4072 C0.4219,4.8392 1.6459,6.0002 3.1509,6.0002 C4.6589,6.0002 5.8799,4.8402 5.8799,3.4072 C5.8799,1.9742 4.6579,0.8122 3.1509,0.8122 C1.6459,0.8122 0.4249,1.9752 0.4219,3.4072" id="Fill-4" fill="#1E1348" mask="url(#mask-4)"></path>
                </g>
            </g>
        </g>
    </g>
</svg>

<svg width="46" height="42" viewBox="0 0 46 42" xmlns="http://www.w3.org/2000/svg" xmlns:xlink="http://www.w3.org/1999/xlink"><title>Page 1</title><defs><path id="a" d="M0 42h45.696V.495H0V42z"/><path id="c" d="M.422 6H5.88V.812H.422V6z"/></defs><g fill="none" fill-rule="evenodd"><g transform="translate(0 -.495)"><mask id="b" fill="#fff"><use xlink:href="#a"/></mask><path d="M11.422 39.407c0 1.432 1.224 2.593 2.729 2.593 1.508 0 2.729-1.16 2.729-2.593s-1.222-2.595-2.73-2.595c-1.504 0-2.725 1.163-2.728 2.595zM10.226 9.765l3.044.33 2.248 16.34h-2.845l-2.447-16.67zm5.963.651l4.426.481.74 15.538H18.4l-2.21-16.019zm7.3.795l4.446.484-.74 14.74h-2.98l-.726-15.224zm6.57 15.224l.72-14.429 4.45.485-2.192 13.944H30.06zm5.86 0L38.067 12.8l4.428.482-3.622 13.153h-2.954zM1.082 3.051L5.876 4.14 10 27.902v.015l.005.027c.017.071.054.136.084.205.029.076.046.154.085.223.047.071.114.128.174.194.052.054.09.112.145.155.076.058.167.096.256.14.058.027.108.065.172.088.157.054.327.082.502.082h26.736l-.713 2.594H8.568c-.788 0-1.426.581-1.426 1.298 0 .716.638 1.296 1.426 1.296h29.994c.178 0 .349-.034.509-.088.056-.02.1-.05.153-.077.098-.048.189-.1.276-.17.048-.043.092-.087.133-.13.069-.075.127-.153.174-.237.034-.058.064-.115.087-.178.014-.035.039-.064.05-.102l1.427-5.188 4.286-15.565c.048-.179.048-.359.02-.53-.01-.047-.037-.086-.052-.13a1.264 1.264 0 0 0-.161-.356c-.005-.01-.005-.024-.014-.034-.036-.044-.087-.068-.128-.108a1.402 1.402 0 0 0-.26-.224c-.071-.043-.147-.068-.228-.099-.072-.028-.133-.074-.214-.092-.035-.008-.065.001-.097-.004-.03-.005-.052-.023-.08-.026L9.276 7.046l-.724-4.16c-.088-.513-.508-.928-1.064-1.055L1.774.534C1.01.36.233.784.044 1.478c-.193.695.27 1.4 1.038 1.573z" fill="#1E1348" mask="url(#b)"/></g><g transform="translate(30 35.505)"><mask id="d" fill="#fff"><use xlink:href="#c"/></mask><path d="M.422 3.407C.422 4.84 1.646 6 3.15 6c1.509 0 2.73-1.16 2.73-2.593S4.658.812 3.15.812C1.647.812.426 1.975.423 3.407" fill="#1E1348" mask="url(#d)"/></g></g></svg>
